X:1
T:Title
L:1/8
Q:1/4=100
M:6/8
K:Eb
V:1 treble nm="Church Organ, Staff"
V:1
 B G2 Bcd | e B2 G E2 | F G2 GBA | G G2- G/ z/ F2 | B G2 EAB | c B2 G E2 | EBA G G2 | %7
w: By~Arthur~H.~Brown * * * *|||||||
 F F2- F/ z/ .E2 | E G2 G A2 | AGF E D2 | G B2 B B2 | =A G2 ABc | d e2 g B2 | e c2 A F2 | %14
w: |||||||
 EBA G G2 | F F2- F/ z/ E2 | z F2- F/ z/ G2- | GAG F G2 | B e2 eed | c d2- d/ z/ B2- | B c2 c B2 | %21
w: |||||||
 BAG F G2 | Bcd e e2 | d e2- e e2 |] %24
w: |||

